X: 133
T: Scotch Reel 
O: No 133 Page 64 William Clarke of Feltwell
M: C
L: 1/8
K: G
D|GBdg edcB| gbag aAAB|GBdg edcB| cAdc BG G2:||
| gdga (3gab ag| fdad bdad| gdga (3gab ag | dgfa g2 g2| gdga (3gab ag| agab c'2 d'a| gedc Bdge| dBcA G2 G2:||

